X:1
T:Christmas, CM
T:Harmonia Sacra, 1812, arranged from Handel
T:Christmas, CM
T:Public Domain
C:Harmonia Sacra, 1812, arranged from Handel
Z:Public Domain
%%score ( 1 2 ) ( 3 4 )
L:1/8
M:4/4
K:D
V:1 treble 
V:2 treble 
V:3 bass 
V:4 bass 
V:1
 ([DF]>[CG]) | [DA]2 [Fd]2 (EF) [GB]2 | [DA]2 (D>[CE]) [DF]2 (F>G) | [DA]2 [DA]2 (DF)([EG][DF]) | %4
 ([DF]2 [CE]4) (cd) | (AG) [FA]2 [EG]2 [CG]2 | [DG]2 (FE) [DF]2 (dc) | [GB]2 [FA]2 [DG]2 [DF]2 | %8
 (B2 A4) [Ee]2 | [FA]2 (D>E) [DF]2 [CE]2 x | D6 |] %11
V:2
 x2 | x4 c2 x2 | x6 D2 | x4 A2 x2 | x6 A2 | e2 x6 | x2 D2 x F2 x | x8 | D6 x2 | x2 d2 x5 | D6 |] %11
V:3
 (D,>E,) | [F,A,]2 [D,A,]2 A,2 (B,C) | [F,D]2 (F,>E,) [D,A,]2 (D,>E,) | %3
 [F,A,]2 [D,F,]2 [F,D]2 [G,B,]2 | A,6 (A,,B,,) | [C,E]2 (D=C) [E,B,]2 [A,,A,]2 | %6
 [D,A,]2 (A,G,) [D,A,]2 [D,A,]2 | D,2 (DC) [D,B,]2 [D,A,]2 | (G,2 F,4) (B,>C) | %9
 [F,D]2 ([F,A,]>[G,B,]) A,2 (z G,) x | [D,F,]6 |] %11
V:4
 A,2 | x4 A,2 G,2 | x2 A,2 x/ A,2 x3/2 | x8 | A,6 E2 | x2 D,2 x4 | x2 D,2 x4 | x2 D,2 x4 | %8
 D,6 G,2 | x4 A,3 A,,2 | x6 |] %11

